client/src/assets/logo.svg

<svg width="114" height="20" viewBox="0 0 114 20" fill="none" xmlns="http://www.w3.org/2000/svg">
<g clip-path="url(#clip0_3_3084)">
<path d="M21.4193 0C17.771 0 14.8374 2.78337 14.8374 6.82987C14.8374 10.8764 17.7688 13.6344 21.3684 13.6344C24.046 13.6344 26.2508 12.4421 27.4125 9.95677L24.5314 9.02079C23.613 10.5932 22.3635 10.7221 21.3684 10.7221C19.812 10.7221 18.5108 9.58789 18.1789 7.73232H27.8743V6.57277C27.746 2.65519 24.8124 0 21.4193 0ZM18.2851 5.33572C18.6893 3.73724 20.1439 2.96371 21.4193 2.96371C22.7714 2.96371 23.9958 3.68507 24.4296 5.33497L18.2851 5.33572Z" fill="white"/>
<path d="M35.8326 0.0775146C32.0316 0.0775146 28.8937 2.78338 28.8937 6.82988C28.8937 10.8764 32.0316 13.583 35.8326 13.583C39.5576 13.583 42.6926 10.8764 42.6926 6.82988C42.6926 2.78338 39.5576 0.0775146 35.8326 0.0775146ZM35.8326 10.6707C33.9959 10.6707 32.1592 9.22723 32.1592 6.82988C32.1592 4.43253 33.9959 2.9898 35.8326 2.9898C37.5933 2.9898 39.43 4.43328 39.43 6.82988C39.43 9.22648 37.5933 10.6707 35.8326 10.6707Z" fill="white"/>
<path d="M51.2919 0C49.5577 0 48.154 0.515687 47.0829 1.4159V0.386765H43.7149V17.6295H47.0829V12.2423C48.154 13.1195 49.5577 13.6344 51.2919 13.6344C54.5323 13.6344 57.5425 10.8771 57.5425 6.82987C57.5425 2.78262 54.5323 0 51.2919 0ZM50.7018 10.6707C48.8901 10.6707 47.0793 9.20113 47.0793 6.82987C47.0793 4.4586 48.8968 2.96371 50.7054 2.96371C52.7465 2.96371 54.277 4.4586 54.277 6.82912C54.277 9.19964 52.7465 10.6707 50.7054 10.6707H50.7018Z" fill="white"/>
<path d="M69.0223 1.41737C67.9505 0.515661 66.5475 0.00146484 64.8126 0.00146484C61.5729 0.00146484 58.5619 2.78483 58.5619 6.83133C58.5619 10.8778 61.5729 13.6359 64.8126 13.6359C66.5475 13.6359 67.9505 13.1209 69.0223 12.2438V13.2476H72.3895V0.386739H69.0223V1.41737ZM65.399 10.6707C63.3587 10.6707 61.8274 9.20111 61.8274 6.82984C61.8274 4.45858 63.3587 2.96368 65.399 2.96368C67.2106 2.96368 69.0223 4.45858 69.0223 6.8291C69.0223 9.19962 67.2106 10.6707 65.399 10.6707Z" fill="white"/>
<path d="M95.377 0.0775146C91.5753 0.0775146 88.4374 2.78338 88.4374 6.82988C88.4374 10.8764 91.5753 13.583 95.377 13.583C99.1013 13.583 102.237 10.8764 102.237 6.82988C102.237 2.78338 99.1013 0.0775146 95.377 0.0775146ZM95.377 10.6707C93.5404 10.6707 91.7029 9.22723 91.7029 6.82988C91.7029 4.43253 93.5404 2.9898 95.377 2.9898C97.137 2.9898 98.9737 4.43328 98.9737 6.82988C98.9737 9.22648 97.1378 10.6707 95.377 10.6707Z" fill="white"/>
<path d="M110.658 5.69641L107.622 5.02571C106.627 4.79395 106.474 4.35502 106.474 3.94367C106.474 3.3475 106.857 2.67681 108.209 2.67681C109.61 2.67681 110.504 3.42202 110.632 4.45563L113.762 3.45555C113.186 1.40398 111.159 -0.00372314 108.311 -0.00372314C105.096 -0.00372314 103.106 1.7751 103.106 4.2492C103.106 6.10478 104.407 7.41933 106.703 7.90894L109.306 8.44996C110.403 8.68247 110.707 9.14599 110.707 9.61026C110.707 10.3316 109.97 10.8987 108.716 10.8987C107.388 10.8987 106.267 10.4605 106.088 9.14599L102.757 10.2109C103.273 12.6246 105.736 13.6307 108.41 13.6307C111.729 13.6307 113.997 12.1619 113.997 9.32633C114 7.6034 112.903 6.18601 110.658 5.69641Z" fill="white"/>
<path d="M11.552 1.8623C10.3239 0.726594 8.65461 0.0775146 6.84373 0.0775146C3.0951 0.0775146 0 2.74686 0 6.73747C0 9.00515 0.999488 10.8451 2.54999 12.0121H0.453642V16.2113L12.0772 20V16.7919L3.73536 14.127V12.726C4.71105 13.1747 5.77171 13.4036 6.84373 13.3967C10.5179 13.3967 13.6122 10.7281 13.6122 6.73673C13.6122 5.3007 13.2102 4.03757 12.5264 3.0062H14.5409V0.0775146H11.552V1.8623ZM6.84373 10.4963C5.04539 10.4963 3.24779 9.08042 3.24779 6.73747C3.24779 4.39453 5.04539 2.97862 6.84373 2.97862C8.56684 2.97862 10.3644 4.39453 10.3644 6.73747C10.3644 9.08042 8.56684 10.4963 6.84373 10.4963Z" fill="white"/>
<path d="M85.3578 1.8623C84.1297 0.726594 82.4604 0.0775146 80.6503 0.0775146C76.9009 0.0775146 73.8065 2.74686 73.8065 6.73747C73.8065 9.00515 74.806 10.8451 76.3565 12.0121H74.2602V16.2113L85.8838 20V16.7919L77.5412 14.127V12.726C78.5168 13.1762 79.5777 13.4066 80.6503 13.4012C84.3237 13.4012 87.4188 10.7326 87.4188 6.7412C87.4188 5.30517 87.0168 4.04204 86.3322 3.01067H88.3474V0.0775146H85.3578V1.8623ZM80.6495 10.4963C78.8519 10.4963 77.0543 9.08042 77.0543 6.73747C77.0543 4.39453 78.8519 2.97862 80.6495 2.97862C82.3726 2.97862 84.171 4.39453 84.171 6.73747C84.171 9.08042 82.3726 10.4963 80.6495 10.4963Z" fill="white"/>
</g>
<defs>
<clipPath id="clip0_3_3084">
<rect width="114" height="20" fill="white"/>
</clipPath>
</defs>
</svg>

<svg xmlns="http://www.w3.org/2000/svg" viewBox="0 0 114 20">
  <path fill="currentColor" d="M21.42 0c-3.649 0-6.583 2.783-6.583 6.83 0 4.046 2.932 6.804 6.531 6.804 2.678 0 4.883-1.192 6.045-3.677L24.53 9.02c-.918 1.572-2.168 1.701-3.163 1.701-1.556 0-2.857-1.134-3.19-2.99h9.696v-1.16C27.746 2.656 24.812 0 21.42 0Zm-3.135 5.336c.404-1.599 1.859-2.372 3.134-2.372 1.352 0 2.577.721 3.01 2.371h-6.144ZM35.833.078c-3.801 0-6.94 2.705-6.94 6.752 0 4.046 3.139 6.753 6.94 6.753 3.725 0 6.86-2.707 6.86-6.753 0-4.047-3.135-6.752-6.86-6.752Zm0 10.593c-1.837 0-3.674-1.444-3.674-3.841 0-2.397 1.837-3.84 3.674-3.84 1.76 0 3.597 1.443 3.597 3.84 0 2.396-1.837 3.84-3.597 3.84ZM51.292 0c-1.734 0-3.138.516-4.21 1.416V.386h-3.367V17.63h3.368v-5.388c1.071.877 2.475 1.392 4.209 1.392 3.24 0 6.25-2.757 6.25-6.804 0-4.047-3.01-6.83-6.25-6.83Zm-.59 10.67c-1.812 0-3.623-1.469-3.623-3.84 0-2.371 1.818-3.866 3.626-3.866 2.041 0 3.572 1.495 3.572 3.865s-1.53 3.842-3.572 3.842h-.003ZM69.022 1.417C67.95.516 66.547.001 64.812.001c-3.24 0-6.25 2.784-6.25 6.83 0 4.047 3.01 6.805 6.25 6.805 1.736 0 3.139-.515 4.21-1.392v1.004h3.367V.387h-3.367v1.03ZM65.4 10.671c-2.04 0-3.572-1.47-3.572-3.841 0-2.371 1.532-3.866 3.572-3.866 1.812 0 3.623 1.495 3.623 3.865s-1.811 3.842-3.623 3.842ZM95.377.078c-3.802 0-6.94 2.705-6.94 6.752 0 4.046 3.138 6.753 6.94 6.753 3.724 0 6.86-2.707 6.86-6.753 0-4.047-3.136-6.752-6.86-6.752Zm0 10.593c-1.837 0-3.674-1.444-3.674-3.841 0-2.397 1.837-3.84 3.674-3.84 1.76 0 3.597 1.443 3.597 3.84 0 2.396-1.836 3.84-3.597 3.84ZM110.658 5.696l-3.036-.67c-.995-.232-1.148-.671-1.148-1.082 0-.596.383-1.267 1.735-1.267 1.401 0 2.295.745 2.423 1.779l3.13-1c-.576-2.052-2.603-3.46-5.451-3.46-3.215 0-5.205 1.78-5.205 4.253 0 1.856 1.301 3.17 3.597 3.66l2.603.541c1.097.232 1.401.696 1.401 1.16 0 .722-.737 1.289-1.991 1.289-1.328 0-2.449-.438-2.628-1.753l-3.331 1.065c.516 2.414 2.979 3.42 5.653 3.42 3.319 0 5.587-1.47 5.587-4.305.003-1.723-1.094-3.14-3.339-3.63ZM11.552 1.862C10.324.727 8.655.078 6.844.078 3.095.078 0 2.747 0 6.738c0 2.267 1 4.107 2.55 5.274H.454v4.2L12.077 20v-3.208l-8.342-2.665v-1.401a7.326 7.326 0 0 0 3.109.67c3.674 0 6.768-2.668 6.768-6.66 0-1.435-.402-2.698-1.086-3.73h2.015V.078h-2.989v1.784Zm-4.708 8.634c-1.799 0-3.596-1.416-3.596-3.759 0-2.342 1.797-3.758 3.596-3.758 1.723 0 3.52 1.416 3.52 3.758 0 2.343-1.797 3.76-3.52 3.76ZM85.358 1.862C84.13.727 82.46.078 80.65.078c-3.75 0-6.844 2.669-6.844 6.66 0 2.267 1 4.107 2.55 5.274H74.26v4.2L85.884 20v-3.208l-8.343-2.665v-1.401c.976.45 2.037.68 3.11.675 3.673 0 6.768-2.668 6.768-6.66 0-1.436-.402-2.699-1.087-3.73h2.015V.078h-2.99v1.784Zm-4.709 8.634c-1.797 0-3.595-1.416-3.595-3.759 0-2.342 1.798-3.758 3.596-3.758 1.723 0 3.521 1.416 3.521 3.758 0 2.343-1.798 3.76-3.522 3.76Z"/>
</svg>
